X:319
T: Song Zhangfu
N: C1817
O: China,Gansu Qingyang
S: I, 122]
N: Han
R: Xiaodiao]
M: 2/4
L: 1/8
K: F
dd2c | A2c2 | d3c | d4 |
d3e | decA | G3E | G4 |
A3c | d2de | d2cA | G2D2 |
AA2c | AcFE | D3C | D4

@@@ Tune index: 6874
